/* XPM */
static char * icon_xpm[] = {
"256 256 2 1",
" 	c None",
".	c #0E99F1",
"                                                                                               .....................                        .....................                                                                                               ",
"                                                                                          ..............................                ..............................                                                                                          ",
"                                                                                      ....................................            ....................................                                                                                      ",
"                                                                                   ........................................          ........................................                                                                                   ",
"                                                                                .............................................      .............................................                                                                                ",
"                                                                              ................................................    ................................................                                                                              ",
"                                                                            ...................................................  ...................................................                                                                            ",
"                                                                          ............................................................................................................                                                                          ",
"                                                                        ................................................................................................................                                                                        ",
"                                                                       ..................................................................................................................                                                                       ",
"                                                                     ......................................................................................................................                                                                     ",
"                                                                    ..............................               ..............................               ..............................                                                                    ",
"                                                                   ..........................                       ........................                       ..........................                                                                   ",
"                                                                 ........................                            ......................                            ........................                                                                 ",
"                                                                ......................                                ....................                                ......................                                                                ",
"                                                               .....................                                   ..................                                   .....................                                                               ",
"                                                              ....................                                      ................                                      ....................                                                              ",
"                                                             ...................                                        ................                                        ...................                                                             ",
"                                                            ..................                                          ................                                          ..................                                                            ",
"                                                           ..................                                            ..............                                            ..................                                                           ",
"                                                          .................                                              ..............                                              .................                                                          ",
"                                                         .................                                               ..............                                               .................                                                         ",
"                                                         ................                                                ..............                                                ................                                                         ",
"                                                        ...............                                                   ............                                                   ...............                                                        ",
"                                                       ...............                                                    ............                                                    ...............                                                       ",
"                                                       ..............                                                     ............                                                     ..............                                                       ",
"                                                      ..............                                                      ............                                                      ..............                                                      ",
"                                                      ..............                                                      ............                                                      ..............                                                      ",
"                                                     ..............                                                       ............                                                       ..............                                                     ",
"                                                     .............                                                        ............                                                        .............                                                     ",
"                                                    .............                                                         ............                                                         .............                                                    ",
"                                                 ................                                                         ............                                                         ................                                                 ",
"                                              ..................                                                          ............                                                          ..................                                              ",
"                                           ....................                                                           ............                                                           ....................                                           ",
"                                         ......................                                                           ............                                                           ......................                                         ",
"                                       .......................                                                            ............                                                            .......................                                       ",
"                                     .........................                                                            ............                                                            .........................                                     ",
"                                   ...........................                                                            ............                                                            ...........................                                   ",
"                                  ...........................                                                             ............                                                             ...........................                                  ",
"                                .............................                                                             ............                                                             .............................                                ",
"                               ..............................                                                             ............                                                             ..............................                               ",
"                              ...........................                                                                 ............                                                                 ...........................                              ",
"                             .......................                                                                      ............                                                                      .......................                             ",
"                           ......................                                                                         ............                                                                         ......................                           ",
"                          .....................                                                                           ............                                                                           .....................                          ",
"                         ...................                                                                              ............                                                                              ...................                         ",
"                         ..................                                                                               ............                                                                               ..................                         ",
"                        .................                                                                                 ............                                                                                 .................                        ",
"                       .................                                                                                  ............                                                                                  .................                       ",
"                      ................                                                                                    ............                                                                                    ................                      ",
"                     ................                                                                                     ............                                                                                     ................                     ",
"                     ...............                                                          ......                      ............                                                                                      ...............                     ",
"                    ...............                                                          ........                     ............                                                                                       ...............                    ",
"                   ...............                                                          ..........                    ............                                                                                        ...............                   ",
"                   ..............                                                           ...........                   ............                                                                                         ..............                   ",
"                  ..............                                                            ...........                   ............                                                                                          ..............                  ",
"                 ..............                                                             ...........                   ............                                                                                           ..............                 ",
"                 .............                                                             ............                   ............                                                                                            .............                 ",
"                ..............                                                             ............                   ............                                                                                            ..............                ",
"                .............                                                              ............                   ............                                                                                             .............                ",
"               .............                                                              ............                    ............                                                                                              .............               ",
"               .............                                                              ............                    ............                                 .....                                                        .............               ",
"               ............                                                              .............                    ............                               ........                                                        ............               ",
"              .............                                                             .............                     ............                              ..........                                                       .............              ",
"              ............                                                             ..............                     ............                              ..........                                                        ............              ",
"             .............                                                            ...............                     ............                              ...........                                                       .............             ",
"             ............                                                            ...............                      ............                             ............                                                        ............             ",
"             ............                                                          .................                      ............                             ............                                                        ............             ",
"            .............                                                        ..................                       ............                             ............                                                        .............            ",
"            ............                                                      ....................                        ............                              ...........                                                         ............            ",
"            ............                                                  .......................                         ............                              ...........                                                         ............            ",
"            ...........                                          ................................                         ............                              ............                                                         ...........            ",
"           ............                                        .................................                          ............                              ............                                                         ............           ",
"           ............                                       .................................                           ............                              ............                                                         ............           ",
"           ............                                      ................................                             ............                               ............                                                        ............           ",
"           ...........                                       ...............................                              ............                               ............                                                         ...........           ",
"           ...........                                       ..............................                               ............                               .............                                                        ...........           ",
"           ...........                                       ............................                                 ............                                .............                                                       ...........           ",
"          ............                                       ..........................                                   ............                                .............                                                       ............          ",
"          ............                                        .......................                                     ............                                ..............                                                      ............          ",
"          ............                                        ....................                                        ............                                 ..............                                                     ............          ",
"          ...........                                          ..............                                             ............                                  ..............                                                     ...........          ",
"          ...........                                                                                                     ............                                  ...............                                                    ...........          ",
"          ...........                                                                                                     ............                                   ...............                                                   ...........          ",
"          ...........                                                                                                     ............                                   ................                                                  ...........          ",
"          ...........                                                                                                     ............                                    .................                                                ...........          ",
"          ...........                                                                                                     ............                                     .................                                               ...........          ",
"          ...........                                                                                                     ............                                      ..................                                             ...........          ",
"          ...........                                                                                                     ............                                       ....................                                          ...........          ",
"          ...........                                                                                                     ............                                       ......................                                        ...........          ",
"          ...........                                                                                                     ............                                         ........................                                    ...........          ",
"          ...........                                                                                                     ............                                          ..............................                             ...........          ",
"          ...........                                                                                                     ............                                           ....................................                      ...........          ",
"          ...........                                                                                                     ............                                            ....................................                     ...........          ",
"          ...........                                                                                                     ............                                             ....................................                    ...........          ",
"          ............                                                                                                    ............                                               ..................................                   ............          ",
"          ............                                                                                                    ............                                                 ................................                   ............          ",
"          ............                                                                                                    ............                                                   ...............................                  ............          ",
"           ...........                                                                                                    ............                                                     ............................                   ...........           ",
"           ...........                                                                                                    ............                                                       ..........................                   ...........           ",
"           ...........                                                                                                    ............                                                          .......................                   ...........           ",
"           ............                                                                                                   ............                                                              ..................                   ............           ",
"           ............                                                                                                   ............                                                                    ..........                     ............           ",
"           ............                                                                                                   ............                                                                                                   ............           ",
"            ...........                                                                                                   ............                                                                                                   ...........            ",
"            ...........                                                                                                   ............                                                                                                   ...........            ",
"            ............                                                                                                  ............                                                                                                  ............            ",
"            ............                          ..............                                                          ............                                                                                                  ............            ",
"            ............                      ........................                                                    ............                                                                                                  ............            ",
"             ............                  ...............................                                                ............                                                                                                 ............             ",
"             ............               .....................................                                             ............                                                                                                 ............             ",
"             ............             .........................................                                           ............                                                                                                 ............             ",
"             ............           .............................................                                         ............                                                                                                 ............             ",
"              ............        .................................................                                       ............                                                                                                ............              ",
"              ............       ....................................................                                     ............                                                                                                ............              ",
"              ............     ........................................................                                   ............                                                                                                ............              ",
"               ............   ..........................................................                                  ............                                                                                               ............               ",
"               ............  .............................................................                                ............                                                                                               ............               ",
"               ......................................       ...............................                               ............                                                                                              .............               ",
"                .................................                  .........................                              ............                                                                                             .............                ",
"                ..............................                        ......................                              ............                                                                                            ..............                ",
"                ............................                             ...................                              ............                                                                                            ..............                ",
"                 .........................                                  ................                              ............                                                                                           ..............                 ",
"                 .......................                                      ...............                             ............                                                                                           ..............                 ",
"                  .....................                                        .............                              ............                                                                                          ..............                  ",
"                  ...................                                            ...........                              ............                                                                                          ..............                  ",
"                   .................                                              ..........                              ............                                                                                         ..............                   ",
"                  ................                                                  ......                                ............                                                                                         ...............                  ",
"                  ...............                                                                                         ............                                                                                        ................                  ",
"                 ...............                                                                                          ............                                                                                       ..................                 ",
"                ...............                                                                                           ............                                                                                      ....................                ",
"                ..............                                                                                            ............                                                                                     .....................                ",
"               ..............                                                                                             ............                                                                                    .......................               ",
"               .............                                                                                              ............                                                                                   .........................              ",
"              ..............                                                                                              ............                                                                                 ...........................              ",
"              .............                                                                                               ............                                                                                .............................             ",
"             .............                                                                                                ............                                                                              ...............................             ",
"             .............                                                                                                ............                                                                             ..................  ............             ",
"             ............                                                                                                 ............                                                                          ....................   .............            ",
"            .............                                                                                                 ............                                                                        ......................    ............            ",
"            ............                                                                                                  ............                                                                     .......................      ............            ",
"            ............                                                                                                  ............                                                                ...........................        ............           ",
"            ............                                                                                                  ............                                                          ................................         ............           ",
"           ............                                                                                                   ............                                                .........................................          ............           ",
"           ............                                                                                                   ............                                              .........................................             ...........           ",
"           ............                                                                                                   ............                                             .........................................              ............          ",
"           ...........                                                                                                    ............                                             .......................................                ............          ",
"           ...........                                                                                                    ............                                             .....................................                  ............          ",
"           ...........                                                                                                    ............                                             ...................................                     ...........          ",
"          ............                                                                                                    ............                                             .................................                       ...........          ",
"          ............                                                                                                    ............                                             ..............................                          ...........          ",
"          ............                                                                                                    ............                                             ...........................                             ...........          ",
"          ............                                                                                                    ............                                              .....................                                  ...........          ",
"          ............                                .....                                                               ............                                                .............                                        ...........          ",
"          ............                              ...........                                                           ............                                                                                                     ...........          ",
"          ............                              ..............                                                        ............                                                                                                     ...........          ",
"           ...........                             ..................                                                     ............                                                                                                    ............          ",
"           ...........                             ....................                                                   ............                                                                                                    ............          ",
"           ...........                             ......................                                                 ............                                                                                                    ............          ",
"           ............                            .......................                                                ............                                                                                                    ............          ",
"           ............                            .........................                                              ............                                                                                                   ............           ",
"           ............                            ..........................                                             ............                                                                                                   ............           ",
"            ............                            ..........................                                            ............                                                                                                   ............           ",
"            ............                             ..........................                                           ............                                                                                                  .............           ",
"            .............                               ........................                                          ............                                                                                                  ............            ",
"            .............                                   .....................                                         ............                                                                                                 .............            ",
"             .............                                     ...................                                        ............                                                                                                 ............             ",
"             .............                                       ..................                                       ............                                                                                                .............             ",
"              .............                                        .................                                      ............                                                                                               ..............             ",
"              ..............                                        ................                                      ............                                                                                              ..............              ",
"               ..............                                         ...............                                     ............                                                                                             ...............              ",
"               ...............                                         ...............                                    ............                                                                                            ...............               ",
"                ...............                                         ..............                                    ............                                                                                           ...............                ",
"                ................                                         ..............                                   ............                                                                                          ................                ",
"                 .................                                        .............                                   ............                                                                                        .................                 ",
"                  .................                                       ..............                                  ............                                                                                       .................                  ",
"                   ..................                                      .............                                  ............                                                                                     ..................                   ",
"                    ...................                                     .............                                 ............                                                                                   ....................                   ",
"                     .....................                                  .............                                 ............                                                                                ......................                    ",
"                      ......................                                 ............                                 ............                                                                              .......................                     ",
"                       ........................                              .............                                ............                                                                           .........................                      ",
"                        .........................                             ............                                ............                                                                          ........................                        ",
"                         .......................                              ............                                ............                                                                          .......................                         ",
"                          ......................                               ............                               ............                                                                          ......................                          ",
"                            ...................                                ............                               ............                      ......                                               ...................                            ",
"                              .................                                ............                               ............                     ........                                              .................                              ",
"                               ...............                                  ...........                               ............                    ..........                                              ...............                               ",
"                                 .............                                  ...........                               ............                   ...........                                              .............                                 ",
"                                 ............                                   ............                              ............                   ...........                                               ............                                 ",
"                                .............                                   ............                              ............                   ...........                                               ............                                 ",
"                                ............                                    ............                              ............                   ...........                                               .............                                ",
"                                ............                                     ...........                              ............                   ............                                               ............                                ",
"                               ............                                      ...........                              ............                   ............                                               ............                                ",
"                               ............                                      ...........                              ............                   ............                                                ............                               ",
"                               ............                                      ...........                              ............                   ............                                                ............                               ",
"                               ...........                                       ............                             ............                   ............                                                ............                               ",
"                               ...........                                       ............                             ............                    ...........                                                 ...........                               ",
"                              ............                                       ............                             ............                    ...........                                                 ...........                               ",
"                              ............                                       ............                             ............                    ...........                                                 ............                              ",
"                              ............                                       ............                             ............                    ............                                                ............                              ",
"                              ............                                       ............                             ............                    ............                                                ............                              ",
"                              ............                                        ..........                              ............                    ............                                                ............                              ",
"                              ............                                        ..........                              ............                     ...........                                                ............                              ",
"                              ............                                         ........                               ............                     ............                                               ............                              ",
"                               ...........                                          ......                                ............                     ............                                               ............                              ",
"                               ...........                                                                                ............                     .............                                              ............                              ",
"                               ............                                                                               ............                      ............                                              ...........                               ",
"                               ............                                                                               ............                      .............                                            ............                               ",
"                               ............                                                                               ............                      ..............                                           ............                               ",
"                               .............                                                                              ............                       .............                                          .............                               ",
"                                ............                                                                              ............                       ..............                                         ............                                ",
"                                .............                                                                             ............                        ..............                                       .............                                ",
"                                ..............                                                                            ............                        ...............                                     ..............                                ",
"                                 .............                                                                            ............                         ...............                                   ..............                                 ",
"                                 ..............                                                                           ............                          ................                               ................                                 ",
"                                  ..............                                                                          ............                          .................                            .................                                  ",
"                                  ...............                                                                         ............                           ..................                        ...................                                  ",
"                                   ...............                                                                        ............                            ...................                   .....................                                   ",
"                                    ................                                                                      ............                             ....................             ........................                                    ",
"                                    .................                                                                     ............                              .....................    ..............................                                     ",
"                                     ..................                                                                   ............                               .....................................................                                      ",
"                                      ...................                                                                 ............                                ...................................................                                       ",
"                                       .....................                                                              ............                                 .................................................                                        ",
"                                        .......................                                                           ............                                  ...............................................                                         ",
"                                         ...........................                                                      ............                                    ...........................................                                           ",
"                                          ..................................                                              ............                                     ........................................                                             ",
"                                           .................................                                              ............                                       ....................................                                               ",
"                                            .................................                                             ............                                         ................................                                                 ",
"                                              ...............................                                             ............                                           ..........................                                                     ",
"                                               ..............................                                             ............                                           ......................                                                         ",
"                                                 .............................                                            ............                                          ................                                                                ",
"                                                   ...........................                                            ............                                         .............                                                                    ",
"                                                      ........................                                            ............                                         .............                                                                    ",
"                                                        .......................                                           ............                                        .............                                                                     ",
"                                                            ...................                                           ............                                       ..............                                                                     ",
"                                                                 ...............                                         ..............                                     ..............                                                                      ",
"                                                                    .............                                        ..............                                    ...............                                                                      ",
"                                                                    ..............                                       ..............                                   ...............                                                                       ",
"                                                                     ..............                                     ................                                 ................                                                                       ",
"                                                                     ...............                                   ..................                              .................                                                                        ",
"                                                                      ...............                                 ....................                            .................                                                                         ",
"                                                                      .................                              ......................                        ...................                                                                          ",
"                                                                       ..................                           ........................                     .....................                                                                          ",
"                                                                       .....................                      ............................                .......................                                                                           ",
"                                                                        ........................                ................................           .........................                                                                            ",
"                                                                         .........................................................................................................                                                                              ",
"                                                                          .......................................................................................................                                                                               ",
"                                                                           .....................................................................................................                                                                                ",
"                                                                            ...................................................  ..............................................                                                                                 ",
"                                                                              ................................................    ...........................................                                                                                   ",
"                                                                               ..............................................      ........................................                                                                                     ",
"                                                                                 ..........................................          ....................................                                                                                       ",
"                                                                                   .......................................            .................................                                                                                         ",
"                                                                                     ...................................                .............................                                                                                           ",
"                                                                                         .............................                    ........................                                                                                              ",
"                                                                                             ......................                          .................                                                                                                  "};
